X:144
T:RVW2/2/145 Good People All
C:J.W. Wright ("Mr. Smith" in MS), Coombe Bissett, Wiltshire,  2 Sep 1904
L:1/4
Q:1/4=132
M:2/2
I:linebreak $
K:G
G2 | B2 B B | A B c B | G3 B | B2 G B |$ d2 c B | A3 B | c e d"^(a)" c | B2 c d |$ e2 c A | 
G F E D | B d d d | A c B A | !fermata!G2 ||$ G2 | B2 B B | A B c B | G3 B | B2 G B |$ d2 c B | 
A3 B | c e d"^(a) var." d | B2 c d |$ e2 c A | G F E D | B d d d | A c B A | G2 |] 



